carriers/servientrega.svg

<svg width="128" height="64" viewBox="0 0 128 64" fill="none" xmlns="http://www.w3.org/2000/svg">
<rect width="128" height="64" rx="6" fill="#56C271"/>
<path fill-rule="evenodd" clip-rule="evenodd" d="M63.1298 8.67175H76.9422V22.557C76.9343 29.2501 71.532 34.6718 64.8706 34.6718H51.0581V20.8008C51.0581 14.1021 56.4628 8.67175 63.1298 8.67175Z" fill="url(#paint0_linear_5_13000)" stroke="white" stroke-width="1.8"/>
<path fill-rule="evenodd" clip-rule="evenodd" d="M70.6561 17.6108C69.6929 15.9334 67.8023 14.9943 65.5265 14.9943C61.9728 15.1138 58.7838 17.2195 57.2646 20.4495H56.2587C55.8254 20.4479 55.4252 20.2169 55.2056 19.8417C54.9859 19.4665 54.9794 19.0028 55.1885 18.6216C58.7985 12.6932 68.2233 10.9441 70.6561 17.6108Z" fill="url(#paint1_linear_5_13000)"/>
<path fill-rule="evenodd" clip-rule="evenodd" d="M70.6565 17.6036H73.5104C72.2441 14.2917 69.0274 12.1504 65.4983 12.2703C61.1962 12.359 57.2743 14.7661 55.2317 18.5714C58.799 12.6861 68.2308 10.9585 70.6565 17.6036Z" fill="white"/>
<path fill-rule="evenodd" clip-rule="evenodd" d="M57.3721 25.7327H54.5183C55.6384 28.9585 58.799 31.0589 62.5161 31.0589C66.7799 30.982 70.6792 28.6269 72.747 24.8796C69.722 29.9334 60.2759 32.6359 57.3721 25.7327Z" fill="white"/>
<path fill-rule="evenodd" clip-rule="evenodd" d="M73.1395 21.3457C72.7013 20.7521 71.9979 20.4163 71.2631 20.4497H56.2806C55.8797 20.4435 55.5064 20.243 55.2784 19.9116C55.0505 19.5801 54.9959 19.1584 55.1319 18.7794C54.9383 19.1674 54.7691 19.5672 54.6254 19.9766C54.3678 20.6605 54.464 21.4282 54.8822 22.0267C55.3168 22.6289 56.0186 22.9775 56.7586 22.9586H71.7411C72.1416 22.9941 72.5014 23.2191 72.7099 23.5645C72.9185 23.9099 72.9508 24.3345 72.7971 24.7077C73.0311 24.2638 73.2337 23.8039 73.4035 23.3314C73.6464 22.6662 73.5477 21.9235 73.1395 21.3457Z" fill="white"/>
<path fill-rule="evenodd" clip-rule="evenodd" d="M71.6982 22.9586H70.7351C69.22 26.1847 66.0359 28.2881 62.4875 28.4066C60.4267 28.5099 58.4708 27.4876 57.3721 25.7328C60.2901 32.6432 69.7719 29.9192 72.7541 24.8583C72.9705 24.4712 72.971 23.999 72.7556 23.6114C72.5401 23.2238 72.1397 22.9766 71.6982 22.9586Z" fill="url(#paint2_linear_5_13000)"/>
<path d="M52.2155 52.4075C52.2155 52.5394 52.1091 52.6463 51.9778 52.6463H51.1805C51.0493 52.6463 50.9428 52.5394 50.9428 52.4075V44.73C50.9428 44.6667 50.9679 44.606 51.0125 44.5612C51.057 44.5164 51.1175 44.4912 51.1805 44.4912H51.958C52.021 44.4912 52.0815 44.5164 52.1261 44.5612C52.1707 44.606 52.1957 44.6667 52.1957 44.73L52.2155 52.4075ZM49.4423 44.6455H48.7441C48.6019 44.6218 48.461 44.6946 48.3974 44.8246L45.9858 50.6759L43.5741 44.8395C43.5098 44.7063 43.3688 44.6285 43.2225 44.6455H42.5143C42.4402 44.6451 42.3703 44.6802 42.3262 44.74C42.2464 44.8361 42.2291 44.9698 42.2816 45.0833L45.2974 52.3677C45.3528 52.5178 45.4862 52.625 45.6441 52.6463H46.3225C46.4841 52.6199 46.6187 52.5075 46.6741 52.3527L49.6949 45.0684C49.7488 44.9536 49.7272 44.8174 49.6404 44.7251C49.5931 44.6637 49.5196 44.6286 49.4423 44.6305V44.6455ZM41.311 45.2177L40.999 45.7899C40.9836 45.8179 40.9634 45.8432 40.9396 45.8645C40.8195 45.9757 40.6423 45.9977 40.4989 45.9192C40.4412 45.8814 40.3798 45.8497 40.3156 45.8247C39.6398 45.5379 38.866 45.6102 38.2545 46.0175C37.643 46.4247 37.2753 47.1127 37.275 47.8498V52.4075C37.2764 52.4716 37.2519 52.5337 37.2072 52.5795C37.1625 52.6254 37.1013 52.6513 37.0373 52.6512H36.2599C36.1259 52.6512 36.0172 52.5421 36.0172 52.4075V44.8694C36.0199 44.7367 36.1278 44.6305 36.2599 44.6305H36.4382C36.8438 44.61 37.2001 44.8993 37.2651 45.3022C37.8471 44.7139 38.6383 44.3827 39.4638 44.3817H39.548C39.9821 44.3808 40.4112 44.4742 40.8059 44.6554C40.8752 44.6853 41.0188 44.7599 41.2219 44.8743C41.3353 44.9414 41.3749 45.0871 41.311 45.2027V45.2177ZM22.6564 47.7851L22.389 47.7403C21.5422 47.591 20.4874 47.402 20.4627 46.6705C20.4545 46.4575 20.5374 46.251 20.6905 46.1033C21.1665 45.7324 21.764 45.5548 22.3643 45.6058H22.4138C23.048 45.5673 23.6782 45.7291 24.2163 46.0685C24.256 46.0934 24.3501 46.168 24.4739 46.2675C24.6249 46.3802 24.8352 46.3654 24.9691 46.2327L25.281 45.8943C25.3644 45.8071 25.4013 45.685 25.3801 45.5659C25.3598 45.4766 25.3111 45.3962 25.2414 45.3371C25.0731 45.1928 24.9493 45.0982 24.8799 45.0485C24.1434 44.5708 23.2803 44.328 22.4039 44.3519H22.3346C21.4021 44.3007 20.4862 44.6146 19.7793 45.2276C19.3829 45.6199 19.169 46.1617 19.19 46.7203C19.19 48.4767 20.9183 48.7653 22.2999 48.9992C23.7855 49.238 24.4937 49.4967 24.4739 50.1834C24.4342 51.2183 23.0427 51.3278 22.4485 51.3278C21.8703 51.3329 21.3 51.1926 20.7895 50.9197C20.4916 50.7497 20.2292 50.5233 20.017 50.253C19.9484 50.1604 19.8396 50.1067 19.7248 50.1087C19.632 50.1087 19.5424 50.1423 19.4722 50.2033L19.086 50.5515C18.9487 50.6826 18.9296 50.8956 19.0414 51.0491C19.3098 51.3823 19.6271 51.6725 19.9823 51.9099C20.7275 52.3649 21.5866 52.5962 22.4584 52.5766C25.4792 52.5766 25.7614 50.7805 25.7763 50.2281C25.8505 48.3225 23.944 47.999 22.6564 47.7851ZM98.4237 51.3526C99.2873 50.718 99.859 49.7593 100.008 48.6946C100.157 47.63 99.8717 46.5499 99.2159 45.7003L99.7953 45.0236C99.8571 44.9357 99.8571 44.818 99.7953 44.73C99.5543 44.3847 99.0916 44.2793 98.7258 44.4862C98.6416 44.5349 98.5664 44.5971 98.5027 44.6703L98.3045 44.9092C97.6875 44.5339 96.9813 44.3312 96.2598 44.322C94.0112 44.322 92.5057 45.8894 92.5057 48.2279C92.456 49.2521 92.8321 50.2511 93.544 50.986C94.2553 51.721 95.2394 52.1259 96.2598 52.1039C97.423 52.1039 98.7799 52.6015 98.7799 54.0494C98.7799 55.8705 96.8538 56.0397 96.2643 56.0397C95.1699 56.0397 93.9468 55.5919 93.7881 54.343C93.7881 54.343 93.7881 54.343 93.7881 54.1539C93.7856 54.0231 93.681 53.9177 93.551 53.9151H92.7779C92.6491 53.9178 92.5453 54.0239 92.5453 54.1539V54.2186C92.5414 54.2932 92.5414 54.3679 92.5453 54.4425C92.7186 56.1989 94.1846 57.3284 96.2891 57.3284C98.6219 57.3284 100.073 56.0795 100.073 54.0793C100.116 52.9191 99.4651 51.8454 98.4186 51.3526H98.4237ZM96.2993 50.8053C95.6231 50.8173 94.9723 50.5465 94.5032 50.0578C94.0335 49.5691 93.7875 48.9062 93.8232 48.2279C93.8232 46.9691 94.4669 45.6207 96.2993 45.6207C97.785 45.6207 98.7755 46.6457 98.7755 48.2279C98.7761 49.619 97.6779 50.7597 96.2942 50.8053H96.2993ZM108.818 44.6305H108.486C108.262 44.6252 108.045 44.7109 107.885 44.8682C107.725 45.0256 107.634 45.2412 107.634 45.4664C106.918 44.7445 105.94 44.3473 104.925 44.3668C103.847 44.3515 102.809 44.7787 102.052 45.5496C101.294 46.3205 100.881 47.3686 100.909 48.4518C100.872 49.5393 101.278 50.5949 102.035 51.3732C102.792 52.1515 103.833 52.5846 104.916 52.5716C105.945 52.5918 106.934 52.17 107.634 51.4123V52.4075C107.634 52.5394 107.741 52.6463 107.872 52.6463H108.794C108.924 52.6437 109.028 52.5382 109.031 52.4075V44.8694C109.029 44.7458 108.936 44.6431 108.813 44.6305H108.818ZM104.99 51.2879C104.244 51.3026 103.526 51.0058 103.006 50.4682C102.486 49.9307 102.211 49.2006 102.247 48.4518C102.247 46.9102 103.491 45.6605 105.025 45.6605C106.559 45.6605 107.803 46.9102 107.803 48.4518C107.84 49.2139 107.555 49.9565 107.018 50.4965C106.482 51.0365 105.744 51.3239 104.985 51.2879H104.99ZM76.4808 51.2879C76.4244 51.1469 76.2946 51.0492 76.1441 51.0342C76.0861 51.0333 76.0286 51.0452 75.9757 51.069L75.7281 51.1735C75.5162 51.2562 75.2917 51.3016 75.0645 51.3079C74.1583 51.3079 74.0048 50.8451 74.0048 49.8748V45.7451H76.2827C76.4129 45.7424 76.5178 45.637 76.5204 45.5062V44.8594C76.5178 44.7286 76.4129 44.6232 76.2827 44.6206H74.0048V42.486C74.0048 42.3541 73.8983 42.2472 73.7671 42.2472H73.4947C73.0836 42.2472 72.7497 42.5805 72.7469 42.9935V44.6305H71.3108C71.1807 44.6332 71.0758 44.7386 71.0731 44.8694V45.5162C71.0758 45.647 71.1807 45.7524 71.3108 45.755H72.7469V49.8848C72.7469 51.681 73.5046 52.5567 75.0744 52.5567C75.4219 52.5516 75.7657 52.4842 76.0896 52.3577C76.1738 52.3278 76.3372 52.2532 76.5848 52.1388C76.7031 52.0845 76.756 51.9449 76.7037 51.8253L76.4808 51.2879ZM83.5623 45.138L83.2257 45.7451C83.155 45.8724 83.0186 45.9478 82.8739 45.9391C82.8102 45.9396 82.7471 45.9242 82.6907 45.8943C82.6318 45.8557 82.5687 45.824 82.5026 45.7998C81.8234 45.5133 81.0468 45.5851 80.431 45.9912C79.8151 46.3974 79.4408 47.0848 79.4323 47.8249V52.4075C79.4323 52.5402 79.3266 52.6486 79.1946 52.6512H78.4171C78.285 52.6486 78.1794 52.5402 78.1794 52.4075V44.8694C78.182 44.7386 78.2869 44.6332 78.4171 44.6305H78.6399C79.0457 44.61 79.4018 44.8993 79.4669 45.3022C80.0489 44.7139 80.8401 44.3827 81.6657 44.3817H81.7499C82.1838 44.3808 82.6129 44.4742 83.0078 44.6554C83.169 44.7309 83.3264 44.8156 83.4781 44.9092C83.5655 44.9536 83.6005 45.06 83.5572 45.148L83.5623 45.138ZM70.3749 47.8747V52.4075C70.3749 52.4708 70.3498 52.5315 70.3053 52.5764C70.2607 52.6212 70.2002 52.6463 70.1372 52.6463H69.3548C69.2245 52.6437 69.1197 52.5382 69.117 52.4075V47.9294C69.1477 47.3035 68.9223 46.6923 68.4931 46.2377C68.0151 45.8183 67.3935 45.6024 66.7599 45.6356H66.7103C66.0742 45.6281 65.4631 45.8842 65.0209 46.3436C64.5787 46.803 64.3443 47.4252 64.3729 48.0637V52.4075C64.3703 52.5382 64.2654 52.6437 64.1352 52.6463H63.3528C63.2215 52.6463 63.1151 52.5394 63.1151 52.4075V44.8992C63.1151 44.7508 63.2348 44.6305 63.3825 44.6305H63.5162C63.9279 44.6107 64.2876 44.9075 64.3481 45.3172C64.9849 44.6963 65.8379 44.3499 66.7252 44.3519C68.9289 44.3519 70.3699 45.7202 70.3699 47.8846L70.3749 47.8747ZM34.6901 48.2876C34.6901 46.367 33.457 44.3071 30.7531 44.3071C29.666 44.286 28.618 44.7147 27.8549 45.4929C27.0916 46.271 26.6803 47.3301 26.7172 48.422C26.6591 49.5188 27.0639 50.5894 27.8321 51.3707C28.6004 52.1521 29.6609 52.5719 30.7531 52.5269C31.8806 52.5482 32.9742 52.1393 33.8135 51.3825C33.868 51.3278 33.9621 51.2232 34.0908 51.069C34.1669 50.978 34.1946 50.8557 34.1651 50.7406C34.144 50.6531 34.0932 50.5757 34.0215 50.5217L33.66 50.2331C33.5948 50.1783 33.5123 50.1483 33.4273 50.1485C33.3178 50.1499 33.2139 50.1968 33.1401 50.2779C33.0668 50.3695 32.9874 50.4559 32.9023 50.5366C32.2939 51.0346 31.5377 51.3147 30.7531 51.3327C29.4659 51.3893 28.3274 50.5003 28.0641 49.233H34.6257C34.6607 48.9224 34.6805 48.6102 34.6851 48.2976L34.6901 48.2876ZM28.0641 48.2876C28.0641 46.8845 28.8515 45.5908 30.758 45.5908C32.5111 45.5908 33.457 46.586 33.457 48.2876H28.0641ZM61.674 48.2876C61.674 46.367 60.441 44.3071 57.7371 44.3071C56.65 44.286 55.6021 44.7147 54.8388 45.4929C54.0756 46.271 53.6642 47.3301 53.7011 48.422C53.6431 49.5188 54.0479 50.5894 54.8161 51.3707C55.5843 52.1521 56.6448 52.5719 57.7371 52.5269C58.8646 52.5482 59.9582 52.1393 60.7975 51.3825C60.852 51.3278 60.9461 51.2232 61.0748 51.069C61.1498 50.9775 61.1789 50.8565 61.1541 50.7406C61.1309 50.6527 61.0785 50.5755 61.0055 50.5217L60.649 50.2331C60.5814 50.179 60.4976 50.1492 60.4113 50.1485C60.3018 50.1499 60.1979 50.1968 60.124 50.2779C60.0507 50.3695 59.9713 50.4559 59.8864 50.5366C59.2779 51.0346 58.5217 51.3147 57.7371 51.3327C56.4498 51.3893 55.3114 50.5003 55.0481 49.233H61.6146C61.6146 49.233 61.6691 48.7304 61.6691 48.2976L61.674 48.2876ZM55.0481 48.2876C55.0481 46.8845 55.8306 45.6655 57.7371 45.6655C59.4902 45.6655 60.441 46.6059 60.441 48.2876H55.0481ZM91.486 48.2876C91.486 46.367 90.2527 44.3071 87.549 44.3071C86.4616 44.286 85.4138 44.7147 84.6502 45.4929C83.8873 46.271 83.4756 47.3301 83.5126 48.422C83.4546 49.5188 83.8593 50.5894 84.6279 51.3707C85.396 52.1521 86.4565 52.5719 87.549 52.5269C88.6688 52.5539 89.7581 52.1559 90.5994 51.4123C90.6982 51.3141 90.7912 51.2094 90.8766 51.0989C90.9557 51.0096 90.9856 50.8864 90.9557 50.7705C90.9346 50.6829 90.8837 50.6056 90.8123 50.5515L90.4509 50.263C90.3852 50.2081 90.303 50.1782 90.2182 50.1784C90.1086 50.1798 90.0047 50.2266 89.9308 50.3077C89.8575 50.3993 89.7778 50.4858 89.6931 50.5665C89.0844 51.0638 88.3285 51.3438 87.5439 51.3626C86.2558 51.4213 85.1162 50.5314 84.8548 49.2628H91.4165C91.4541 48.9424 91.4758 48.6202 91.4809 48.2976L91.486 48.2876ZM84.8548 48.2777C84.8548 46.8745 85.6324 45.6555 87.5439 45.6555C89.2966 45.6555 90.2476 46.5959 90.2476 48.2777H84.8548ZM52.2155 43.0234V42.486C52.2155 42.3541 52.1091 42.2472 51.9778 42.2472H51.4479C51.1744 42.2472 50.9528 42.47 50.9528 42.7448V43.2821C50.9528 43.3455 50.9778 43.4062 51.0224 43.451C51.0669 43.4958 51.1274 43.521 51.1904 43.521H51.7203C51.9938 43.521 52.2155 43.2982 52.2155 43.0234Z" fill="white"/>
<defs>
<linearGradient id="paint0_linear_5_13000" x1="63.5935" y1="35.0588" x2="64.4213" y2="8.28488" gradientUnits="userSpaceOnUse">
<stop stop-color="#009A44"/>
<stop offset="1" stop-color="#56C271"/>
</linearGradient>
<linearGradient id="paint1_linear_5_13000" x1="55.0244" y1="16.8939" x2="70.6561" y2="16.8939" gradientUnits="userSpaceOnUse">
<stop stop-color="#C5C5C5"/>
<stop offset="0.2" stop-color="#DADADA"/>
<stop offset="0.47" stop-color="#EEEEEE"/>
<stop offset="0.74" stop-color="#FBFBFB"/>
<stop offset="1" stop-color="white"/>
</linearGradient>
<linearGradient id="paint2_linear_5_13000" x1="57.3578" y1="26.421" x2="72.9111" y2="26.421" gradientUnits="userSpaceOnUse">
<stop stop-color="white"/>
<stop offset="0.26" stop-color="#FBFBFB"/>
<stop offset="0.53" stop-color="#EEEEEE"/>
<stop offset="0.8" stop-color="#DADADA"/>
<stop offset="1" stop-color="#C5C5C5"/>
</linearGradient>
</defs>
</svg>

<svg xmlns="http://www.w3.org/2000/svg" width="128" height="64" fill="none"><rect width="128" height="64" fill="#56C271" rx="6"/><path fill="url(#a)" fill-rule="evenodd" stroke="#fff" stroke-width="1.8" d="M63.13 8.672h13.812v13.885c-.008 6.693-5.41 12.115-12.071 12.115H51.058V20.8c0-6.699 5.405-12.13 12.072-12.13Z" clip-rule="evenodd"/><path fill="url(#b)" fill-rule="evenodd" d="M70.656 17.61c-.963-1.677-2.854-2.616-5.13-2.616a9.488 9.488 0 0 0-8.261 5.456h-1.006a1.226 1.226 0 0 1-1.053-.608 1.238 1.238 0 0 1-.018-1.22c3.61-5.929 13.035-7.678 15.468-1.011Z" clip-rule="evenodd"/><path fill="#fff" fill-rule="evenodd" d="M70.656 17.604h2.854a8.283 8.283 0 0 0-8.012-5.334 11.936 11.936 0 0 0-10.266 6.301c3.567-5.885 12.999-7.613 15.424-.967ZM57.372 25.733h-2.854c1.12 3.226 4.281 5.326 7.998 5.326a11.935 11.935 0 0 0 10.231-6.18c-3.025 5.054-12.471 7.757-15.375.854ZM73.14 21.346a2.208 2.208 0 0 0-1.877-.896H56.281a1.24 1.24 0 0 1-1.003-.538 1.253 1.253 0 0 1-.146-1.133c-.194.388-.363.788-.507 1.198a2.217 2.217 0 0 0 .257 2.05c.435.602 1.137.95 1.877.932H71.74c.4.035.76.26.969.605.209.346.24.77.087 1.144.234-.444.437-.904.606-1.377a2.16 2.16 0 0 0-.264-1.985Z" clip-rule="evenodd"/><path fill="url(#c)" fill-rule="evenodd" d="M71.698 22.959h-.963a9.466 9.466 0 0 1-8.248 5.448 5.7 5.7 0 0 1-5.115-2.674c2.918 6.91 12.4 4.186 15.382-.875.216-.387.217-.859.002-1.247a1.27 1.27 0 0 0-1.058-.652Z" clip-rule="evenodd"/><path fill="#fff" d="M52.215 52.407a.238.238 0 0 1-.237.24h-.797a.238.238 0 0 1-.238-.24V44.73a.24.24 0 0 1 .238-.239h.777a.237.237 0 0 1 .238.239l.02 7.678Zm-2.773-7.761h-.698a.326.326 0 0 0-.347.179l-2.411 5.85-2.412-5.835a.346.346 0 0 0-.352-.195h-.708a.232.232 0 0 0-.188.095.324.324 0 0 0-.044.343l3.015 7.285c.056.15.19.257.347.278h.678a.451.451 0 0 0 .352-.293l3.02-7.285a.31.31 0 0 0-.054-.343.242.242 0 0 0-.198-.095v.015Zm-8.131.572-.312.572a.284.284 0 0 1-.06.075.38.38 0 0 1-.44.054.99.99 0 0 0-.183-.094 2.18 2.18 0 0 0-2.062.192 2.202 2.202 0 0 0-.979 1.833v4.557a.239.239 0 0 1-.238.244h-.777a.243.243 0 0 1-.243-.244V44.87a.243.243 0 0 1 .243-.239h.178a.798.798 0 0 1 .827.672 3.098 3.098 0 0 1 2.199-.92h.084a3 3 0 0 1 1.258.273c.07.03.213.105.416.22a.244.244 0 0 1 .089.328v.015Zm-18.655 2.567-.267-.045c-.847-.149-1.902-.338-1.926-1.07a.748.748 0 0 1 .227-.567 2.393 2.393 0 0 1 1.674-.497h.05a3.034 3.034 0 0 1 1.802.462c.04.025.134.1.258.2a.38.38 0 0 0 .495-.035l.312-.339a.38.38 0 0 0 .1-.328.423.423 0 0 0-.14-.229 5.551 5.551 0 0 0-.361-.289 4.333 4.333 0 0 0-2.476-.696h-.07a3.599 3.599 0 0 0-2.555.876c-.396.392-.61.934-.589 1.492 0 1.757 1.728 2.045 3.11 2.28 1.485.238 2.194.497 2.174 1.183-.04 1.035-1.431 1.145-2.026 1.145a3.454 3.454 0 0 1-1.659-.408 2.656 2.656 0 0 1-.772-.667.356.356 0 0 0-.292-.144.385.385 0 0 0-.253.094l-.386.348a.38.38 0 0 0-.045.498c.269.333.586.623.941.86a4.554 4.554 0 0 0 2.476.668c3.021 0 3.303-1.796 3.318-2.349.075-1.906-1.832-2.229-3.12-2.443Zm75.768 3.568a3.995 3.995 0 0 0 .792-5.652l.58-.677a.256.256 0 0 0 0-.294.815.815 0 0 0-1.293-.06l-.198.24a4.034 4.034 0 0 0-2.045-.588c-2.249 0-3.754 1.567-3.754 3.906a3.706 3.706 0 0 0 1.038 2.758 3.67 3.67 0 0 0 2.716 1.118c1.163 0 2.52.498 2.52 1.945 0 1.822-1.926 1.99-2.516 1.99-1.094 0-2.317-.447-2.476-1.696v-.19a.243.243 0 0 0-.237-.238h-.773a.239.239 0 0 0-.233.239v.065c-.004.074-.004.149 0 .224.174 1.756 1.64 2.885 3.744 2.885 2.333 0 3.784-1.248 3.784-3.249a2.893 2.893 0 0 0-1.654-2.726h.005Zm-2.125-.548a2.43 2.43 0 0 1-1.796-.747 2.455 2.455 0 0 1-.68-1.83c0-1.259.644-2.607 2.476-2.607 1.486 0 2.476 1.025 2.476 2.607a2.572 2.572 0 0 1-2.48 2.577h.004Zm12.519-6.175h-.332a.83.83 0 0 0-.601.238.84.84 0 0 0-.251.598 3.714 3.714 0 0 0-2.709-1.1 3.948 3.948 0 0 0-2.873 1.184 3.993 3.993 0 0 0-1.143 2.902 3.995 3.995 0 0 0 1.126 2.921 3.953 3.953 0 0 0 2.881 1.199 3.604 3.604 0 0 0 2.718-1.16v.995c0 .132.107.24.238.24h.922a.243.243 0 0 0 .237-.24V44.87a.243.243 0 0 0-.218-.239h.005Zm-3.828 6.658a2.686 2.686 0 0 1-1.984-.82 2.713 2.713 0 0 1-.759-2.016 2.785 2.785 0 0 1 2.778-2.791 2.785 2.785 0 0 1 2.778 2.79 2.713 2.713 0 0 1-.785 2.045 2.684 2.684 0 0 1-2.033.792h.005Zm-28.51 0a.406.406 0 0 0-.336-.254.396.396 0 0 0-.168.035l-.248.104a1.976 1.976 0 0 1-.663.135c-.907 0-1.06-.463-1.06-1.433v-4.13h2.278a.243.243 0 0 0 .237-.239v-.647a.243.243 0 0 0-.237-.238h-2.278v-2.135a.238.238 0 0 0-.238-.239h-.272a.75.75 0 0 0-.748.746v1.637H71.31a.243.243 0 0 0-.238.24v.646c.003.131.108.236.238.239h1.436v4.13c0 1.796.758 2.672 2.327 2.672a2.908 2.908 0 0 0 1.016-.2c.084-.03.247-.104.495-.218a.24.24 0 0 0 .119-.314l-.223-.537Zm7.082-6.15-.336.607a.377.377 0 0 1-.352.194.385.385 0 0 1-.183-.045.92.92 0 0 0-.188-.094 2.205 2.205 0 0 0-2.072.191 2.227 2.227 0 0 0-.999 1.834v4.582a.243.243 0 0 1-.237.244h-.778a.243.243 0 0 1-.238-.244V44.87a.243.243 0 0 1 .238-.239h.223a.798.798 0 0 1 .827.672 3.098 3.098 0 0 1 2.199-.92h.084c.434-.001.863.092 1.258.273.161.076.318.16.47.254.088.045.123.151.08.239l.004-.01Zm-13.187 2.737v4.532a.24.24 0 0 1-.238.24h-.782a.243.243 0 0 1-.238-.24V47.93a2.3 2.3 0 0 0-.624-1.691 2.434 2.434 0 0 0-1.733-.602h-.05a2.307 2.307 0 0 0-1.69.708 2.33 2.33 0 0 0-.647 1.72v4.343a.243.243 0 0 1-.238.24h-.782a.238.238 0 0 1-.238-.24V44.9c0-.148.12-.269.267-.269h.134a.803.803 0 0 1 .832.687 3.394 3.394 0 0 1 2.377-.965c2.204 0 3.645 1.368 3.645 3.533l.005-.01Zm-35.685.413c0-1.921-1.233-3.98-3.937-3.98a3.951 3.951 0 0 0-2.898 1.185 3.99 3.99 0 0 0-1.138 2.929 3.911 3.911 0 0 0 1.115 2.949 3.873 3.873 0 0 0 2.921 1.156 4.444 4.444 0 0 0 3.06-1.145 5.37 5.37 0 0 0 .278-.313.37.37 0 0 0 .074-.328.388.388 0 0 0-.143-.22l-.362-.288a.36.36 0 0 0-.233-.084.395.395 0 0 0-.287.129 2.565 2.565 0 0 1-.238.259 3.52 3.52 0 0 1-2.149.796 2.632 2.632 0 0 1-2.689-2.1h6.562c.035-.31.055-.623.06-.935l.004-.01Zm-6.626 0c0-1.403.788-2.697 2.694-2.697 1.753 0 2.699.995 2.699 2.697h-5.393Zm33.61 0c0-1.921-1.233-3.98-3.937-3.98a3.952 3.952 0 0 0-2.898 1.185 3.99 3.99 0 0 0-1.138 2.929 3.912 3.912 0 0 0 1.115 2.949 3.872 3.872 0 0 0 2.921 1.156 4.444 4.444 0 0 0 3.06-1.145 5.37 5.37 0 0 0 .278-.313.39.39 0 0 0 .08-.328.398.398 0 0 0-.15-.22l-.356-.288a.386.386 0 0 0-.238-.084.396.396 0 0 0-.287.129 2.587 2.587 0 0 1-.238.259 3.52 3.52 0 0 1-2.149.796 2.632 2.632 0 0 1-2.689-2.1h6.567s.054-.503.054-.935l.005-.01Zm-6.626 0c0-1.403.783-2.622 2.69-2.622 1.752 0 2.703.94 2.703 2.622h-5.393Zm36.438 0c0-1.921-1.233-3.98-3.937-3.98a3.953 3.953 0 0 0-2.899 1.185 3.992 3.992 0 0 0-1.137 2.929 3.91 3.91 0 0 0 1.115 2.949 3.872 3.872 0 0 0 2.921 1.156 4.444 4.444 0 0 0 3.05-1.115c.1-.098.192-.203.278-.313.079-.09.109-.213.079-.328a.39.39 0 0 0-.144-.22l-.361-.288a.361.361 0 0 0-.233-.085.395.395 0 0 0-.287.13 2.613 2.613 0 0 1-.238.258 3.53 3.53 0 0 1-2.15.797 2.627 2.627 0 0 1-2.688-2.1h6.561c.038-.32.06-.643.065-.965l.005-.01Zm-6.631-.01c0-1.404.777-2.622 2.689-2.622 1.753 0 2.704.94 2.704 2.622h-5.393Zm-32.64-5.255v-.537a.238.238 0 0 0-.237-.239h-.53a.496.496 0 0 0-.495.498v.537a.24.24 0 0 0 .237.239h.53a.496.496 0 0 0 .495-.498Z"/><defs><linearGradient id="a" x1="63.593" x2="64.421" y1="35.059" y2="8.285" gradientUnits="userSpaceOnUse"><stop stop-color="#009A44"/><stop offset="1" stop-color="#56C271"/></linearGradient><linearGradient id="b" x1="55.024" x2="70.656" y1="16.894" y2="16.894" gradientUnits="userSpaceOnUse"><stop stop-color="#C5C5C5"/><stop offset=".2" stop-color="#DADADA"/><stop offset=".47" stop-color="#EEE"/><stop offset=".74" stop-color="#FBFBFB"/><stop offset="1" stop-color="#fff"/></linearGradient><linearGradient id="c" x1="57.358" x2="72.911" y1="26.421" y2="26.421" gradientUnits="userSpaceOnUse"><stop stop-color="#fff"/><stop offset=".26" stop-color="#FBFBFB"/><stop offset=".53" stop-color="#EEE"/><stop offset=".8" stop-color="#DADADA"/><stop offset="1" stop-color="#C5C5C5"/></linearGradient></defs></svg>
